X:1
T:Title
%%score { 1 | ( 2 3 ) }
L:1/8
Q:1/4=95
M:6/8
K:G
V:1 treble nm="Grand Piano"
V:2 bass 
V:3 bass 
V:1
 [B,D]>[B,D][B,D] [CE][B,D][B,D] | [DG]2 A B3 | d>ed BAG | [GB]3 .[FA]3 | %4
w: J.~H.~Hall * * * * *||||
 [B,D]>[B,D][B,D] [CE][B,D][B,D] | [DG]2 A B3 | d>ed BAG | [FA]3 .[B,G]3 | d>dd .d3 | %9
w: |||||
 [Ge]>[Ge][Ge] .[Ge]3 | d>ed BAG | [GB]3 .[FA]3 | [B,D]>[B,D][B,D] [CE][B,D][B,D] | [DG]2 A B3 | %14
w: |||||
 d>ed BA[B,G] |[M:7/4] [CFA]3 .[G,B,G]3 z2 z2 z4 |] %16
w: ||
V:2
 [G,,G,]>[G,,G,][G,,G,] [G,,G,][G,,G,][G,,G,] | [B,,G,]2 [D,F,D][K:treble] [G,D]3 | %2
 z3 .D3[K:bass] | [D,D]3 .[D,D]3 | [G,,G,]>[G,,G,][G,,G,] [G,,G,][G,,G,][G,,G,] | %5
 [B,,G,]2 [D,F,D][K:treble] [G,D]3 | z3 .D3[K:bass] | [D,C]3 .[G,,G,]3 | %8
 [G,B,G]>[G,B,G][G,B,G] .[G,B,G]3 | [C,C]>[C,C][C,C] .[C,C]3 | z3 .D3[K:bass] | [D,D]3 .[D,D]3 | %12
 [G,,G,]>[G,,G,][G,,G,] [G,,G,][G,,G,][G,,G,] | [B,,G,]2 [D,F,D][K:treble] [G,D]3 | %14
 z3 .D3[K:bass] |[M:7/4] D,3 .G,,3 z2 z2 z4 |] %16
V:3
 x6 | x3[K:treble] x3 | [G,B,G]>[G,CG][G,B,G] [G,G]-[G,CG][K:bass][G,B,] | x6 | x6 | %5
 x3[K:treble] x3 | [G,B,G]>[G,CG][G,B,G] [G,G]-[G,CG][K:bass][G,B,] | x6 | x6 | x6 | %10
 [G,B,G]>[G,CG][G,B,G] [G,G]-[G,CG][K:bass][G,B,] | x6 | x6 | x3[K:treble] x3 | %14
 [G,B,G]>[G,CG][G,B,G] [G,G]-[G,CG][K:bass]G, |[M:7/4] x14 |] %16

